svg/卡片布局.svg

<svg width="24" height="24" viewBox="0 0 24 24" fill="none" xmlns="http://www.w3.org/2000/svg"><rect x="-14.9712" y="-52.8101" width="334.406" height="150.877" stroke="#F97316"/><path d="M19.5 3H4.5C3.67157 3 3 3.67157 3 4.5V19.5C3 20.3284 3.67157 21 4.5 21H19.5C20.3284 21 21 20.3284 21 19.5V4.5C21 3.67157 20.3284 3 19.5 3Z" stroke="#0D131A" stroke-width="1.5" stroke-linejoin="round"/><path d="M10.5 6.5H6.5V10.5H10.5V6.5Z" stroke="#0D131A" stroke-width="1.5" stroke-linejoin="round"/><path d="M17.5 6.5H13.5V10.5H17.5V6.5Z" stroke="#0D131A" stroke-width="1.5" stroke-linejoin="round"/><path d="M10.5 13.5H6.5V17.5H10.5V13.5Z" stroke="#0D131A" stroke-width="1.5" stroke-linejoin="round"/><path d="M17.5 13.5H13.5V17.5H17.5V13.5Z" stroke="#0D131A" stroke-width="1.5" stroke-linejoin="round"/></svg>

<svg fill="none" viewBox="0 0 24 24"><path stroke="#0D131A" stroke-linejoin="round" stroke-width="1.5" d="M19.5 3h-15A1.5 1.5 0 0 0 3 4.5v15A1.5 1.5 0 0 0 4.5 21h15a1.5 1.5 0 0 0 1.5-1.5v-15A1.5 1.5 0 0 0 19.5 3Z"/><path stroke="#0D131A" stroke-linejoin="round" stroke-width="1.5" d="M10.5 6.5h-4v4h4z"/><path stroke="#0D131A" stroke-linejoin="round" stroke-width="1.5" d="M17.5 6.5h-4v4h4z"/><path stroke="#0D131A" stroke-linejoin="round" stroke-width="1.5" d="M10.5 13.5h-4v4h4z"/><path stroke="#0D131A" stroke-linejoin="round" stroke-width="1.5" d="M17.5 13.5h-4v4h4z"/></svg>
